polaris-icons/icons/new-icons/CircleRightMajor.svg

<svg width="20" height="20" viewBox="0 0 20 20" fill="none" xmlns="http://www.w3.org/2000/svg">
<path d="M6.5 9.25C6.08579 9.25 5.75 9.58579 5.75 10C5.75 10.4142 6.08579 10.75 6.5 10.75L11.6893 10.75L10.4697 11.9697C10.1768 12.2626 10.1768 12.7374 10.4697 13.0303C10.7626 13.3232 11.2374 13.3232 11.5303 13.0303L14.0303 10.5303C14.3232 10.2374 14.3232 9.76256 14.0303 9.46967L11.5303 6.96967C11.2374 6.67678 10.7626 6.67678 10.4697 6.96967C10.1768 7.26256 10.1768 7.73744 10.4697 8.03033L11.6893 9.25H6.5Z" fill="#4A4A4A"/>
<path fill-rule="evenodd" clip-rule="evenodd" d="M17 10C17 13.866 13.866 17 10 17C6.13401 17 3 13.866 3 10C3 6.13401 6.13401 3 10 3C13.866 3 17 6.13401 17 10ZM15.5 10C15.5 13.0376 13.0376 15.5 10 15.5C6.96243 15.5 4.5 13.0376 4.5 10C4.5 6.96243 6.96243 4.5 10 4.5C13.0376 4.5 15.5 6.96243 15.5 10Z" fill="#4A4A4A"/>
</svg>

<svg viewBox="0 0 20 20" xmlns="http://www.w3.org/2000/svg"><path d="M6.5 9.25a.75.75 0 0 0 0 1.5h5.19l-1.22 1.22a.75.75 0 1 0 1.06 1.06l2.5-2.5a.75.75 0 0 0 0-1.06l-2.5-2.5a.75.75 0 1 0-1.06 1.06l1.22 1.22h-5.19Z" fill="#5C5F62"/><path fill-rule="evenodd" d="M17 10a7 7 0 1 1-14 0 7 7 0 0 1 14 0Zm-1.5 0a5.5 5.5 0 1 1-11 0 5.5 5.5 0 0 1 11 0Z" fill="#5C5F62"/></svg>
